X:88
T:Sailors Delight
R:Slip jig
O:England
M:9/8
A:Lancashire
B:Winder
K:D
e|\
f2a g2e f2d | ege c2B c2A |\
f2a g2e f2d | ege d2c d2 :|*
|:e|\
f2d c2B A2g | f2e faf e2g |\
f2d c2B A2g | f2e faf d2:|**
